X:1
T:6 Lieder, Op. 6
T:Wasser und Wein
T:To Fräulein Angela Oppenhoff 
T:6 Lieder, Op. 6
T:Johanna Kinkel
T:2. Wasser und Wein
T:August Kopisch
T:Creative Commons copyright waiver (CC0 1.0 Universal)
T:Creative Commons copyright waiver (CC0 1.0 Universal)
C:Johanna Kinkel
Z:August Kopisch
Z:Creative Commons copyright waiver (CC0 1.0 Universal)
%%score 1 { 2 | 3 }
L:1/8
Q:1/4=120
M:2/4
K:Bb
V:1 treble nm="Voice\nSingstimme"
V:2 treble nm="Piano"
V:3 bass 
V:1
"^Vivace"!mf! F"^Full lyrics available at\nhttps://www.lieder.net/lieder/get_text.html?TextId=29787\n" G/A/ B A | %1
w: Freun- de * sagt, was|
 B =B c F ||"^Chor."!ff! f2 d2 | c2 B2 ||!mf! F G/A/ B A | B =B c G ||"^Chor." g2 c2 | f2 d2 || %8
w: wollt ihr trin- ken?|Wein, Wein,|Wein, Wein!|Soll der * Knecht nach|Was- ser hin- ken?|Nein, nein,|nein, nein!|
!mf!!>(! d3/2 c/ B A | G F F D!>)! |!mf!!>(! d3/2 c/ B A | G F !>!F D!>)! |!f! _d3/2 d/ d d | %13
w: Lass das Was- ser|Was- ser blei- ben,|Lass es gehn und|Müh- len trei- ben,|lass es in den|
 _d d =e2 |!ff!!>(! f3/2 _e/ _d c/d/ | f/_e/ _d/c/ d2!>)! | z4 | z4 | z4 | z4 | %20
w: Wü- ste- nein|Trost den Ka- ra- *|va- * nen * sein,|||||
!p!!>(! d3/2 c/ B A | G F F D!>)! |!p!!>(! d3/2 c/ B A | G F !>!G F!>)! |!mf! _d3/2 d/ d d | %25
w: Lass die Hü- gel|es be- reg- nen|Dass sie uns mit|Trau- ben seg- nen,|lass es sei- ne|
 _d d =e2 |!f! f3/2 _e/ _d c/d/ | f/e/ _d/c/ d2 | z4 | z4 | z4 | z4 |!mf! d3/2 c/ B A | G F F D | %34
w: stol- zen Well’n|bis hin- auf zum *|Him- * mel * schnell’n.|||||Lass es gros- se|Schif- fe schwin- gen,|
 d3/2 c/ B A | G F !>!G F |!f!!>(! g3/2 f/ f/e/ d/c/!>)! |!f!!>(! f3/2 e/ e/d/ c/B/!>)! | %38
w: die den Wein von|fern uns brin- gen,|lass in al- * le *|Land’ es lau- * fen, *|
!f!!>(! e3/2 d/ d/c/ B/A/!>)! |!f!!>(! d3/2 c/ B G!>)! |!mf! c3/2 =B/ c B | %41
w: und da- mit * die *|Hei- den tau- fen;|Was- ser soll be-|
!<(! c d !fermata!e2!<)! |"^più lento"[Q:1/4=110] e d/c/ f B/c/ ||!ff!"^Chor."[Q:1/4=100] d2 c2 | %44
w: lo- bet seyn;|doch wir * trin- ken *|Wein, Wein,|
"_Kopisch." !fermata!B4 |] %45
w: Wein.|
V:2
"^Vivace"!mf! (FG/A/) .B.A | .B.=B .c.F ||!ff! !>![FAcf]2 !>![FBd]2 | !>![EFAc]2 !>![DFB]2 || %4
!mf! (FG/A/) .B.A | .B.=B .c.G ||!ff! !>![F=Bdg]2 !>![EGc]2 | !>![EAcf]2 !>![DF_B]2 || %8
!mf!!>(! (d/A/B/F/) d/A/B/F/ | e/=B/c/F/ d/A/_B/F/!>)! |!mf!!>(! d/A/B/F/ d/A/B/F/ | %11
 e/=B/c/F/ d/A/_B/F/!>)! |!f! [FB_d]>[FBd] [FBd][FBd] | [FB_d][FBd] [Gd=e]2 | %14
!ff!!>(! [F_A_d]>[FAd] [FAd][FAd] | [_G_Ac][GAc] [FA_d]2!>)! |!ff! [F_Af]>[FAf] [FAf][FAf] | %17
 [F_Af][FAf] !>![=Bf_a]2 |!>(! [=Ac=a]>[Acg] [Acf][Ac=e]/f/ | %19
 [B=ea]/g/[Bf]/e/!>)!!mf! f/a/c'/_e'/ |!p!!>(! d'/a/b/f/ d'/a/b/f/ | e'/=b/c'/f/ d'/a/_b/f/!>)! | %22
!p!!>(! d'/a/b/f/ d'/a/b/f/ | e'/=b/c'/f/ d'/a/_b/f/!>)! |!mf! z/ _d/f/b/ !>![dfb_d']2 | %25
 z/ =e/b/_d'/ !>![gd'=e']2 |!f! f'/_d'/_a/f/ d'/a/f/_d/ | [cf]/e/_d/c/ d2 | %28
!mf!!<(! z/ _A/_d/f/!<)! !>![Adf_a]2 |!f!!<(! z/ _c/f/_a/!<)! !>![cfa_c']2 | %30
!ff!!>(! !>!c'/=a/f/c/ !>!a/f/c/A/ | !>!c/B/G/=E/ F/A/c/_e/!>)! |!mf! d/A/B/F/ d/A/B/F/ | %33
 e/=B/c/F/ d/A/_B/F/ | d/A/B/F/ d/A/B/F/ | e/=B/c/F/ d/A/_B/F/ |!f! =B/c/d/B/ c/G/B/c/ | %37
 A/_B/c/A/ B/F/A/B/- | B/E/G/B/- B/A/G/^F/- | F/D/^F/A/- A/G/F/G/ |!mf! [CGc]>[DG=B] [CGc][DGB] | %41
!<(! [CGc][FGd] !fermata![EGce]2!<)! | [CFAc]2 [B,FB][B,GB] ||!ff! [B,DFB]2 [CEA]2 | %44
 !fermata![B,DFB]4 |] %45
V:3
 (F,G,/A,/) .B,.A, | .B,.=B, .C.F, || [F,,F,]2 [B,,B,]2 | [F,,F,]2 [B,,,B,,]2 || %4
 (F,G,/A,/) .B,.A, | .B,.=B, .C.G, || [G,,G,]2 [C,C]2 | [F,,F,]2 [B,,,B,,]2 || %8
 B,,/F,/B,/F,/ B,,/F,/B,/F,/ | B,,/F,/A,/F,/ B,,/F,/B,/F,/ | B,,/F,/B,/F,/ B,,/F,/B,/F,/ | %11
 B,,/F,/A,/F,/ B,,/F,/B,/F,/ | [B,,B,]>[B,,B,] [B,,B,][B,,B,] | [B,,B,][B,,B,] [B,,B,]2 | %14
 [_A,,_A,]>[A,,A,] [A,,A,][A,,A,] | [_A,,_A,][A,,A,] [_D,A,]2 | [_D,_D]>[D,D] [D,D][D,D] | %17
 [_D,_D][D,D] [D,D]2 | [C,C]>[C,C] [C,C][C,C] | [C,C][C,C] !arpeggio![F,CA]2 | %20
 B,,/F,/B,/F,/ B,,/F,/B,/F,/ | B,,/F,/A,/F,/ B,,/F,/B,/F,/ | B,,/F,/B,/F,/ B,,/F,/B,/F,/ | %23
 B,,/F,/A,/F,/ B,,/F,/B,/F,/ | [B,,B,][B,,B,] [F,B,_D]2 | [B,,B,][B,,B,] [B,,B,]2 | %26
 [_A,,_A,][A,_DF] [A,DF][A,DF] |[K:treble] [_A,E_G][A,EG] [_DF]2 |[K:bass] [_D,_D][D,D] [_A,DF]2 | %29
 [_D,_D][D,D] [_A,DF]2 | [C,F,=A,C][C,F,A,C] [C,F,A,C][C,F,A,C] | [C,G,B,][C,G,B,] [F,A,]2 | %32
 B,,/F,/B,/F,/ B,,/F,/B,/F,/ | B,,/F,/A,/F,/ B,,/F,/B,/F,/ | B,,/F,/B,/F,/ B,,/F,/B,/F,/ | %35
 B,,/F,/A,/F,/ B,,/F,/B,/F,/ | [G,,G,]2 [C,C]2 | [F,,F,]2 [B,,B,]2 | [C,C]2 [D,D]2 | %39
 [D,,D,]2 [G,,G,]2 | [E,,E,]>[F,,F,] [E,,E,][F,,F,] | [E,,E,][=B,,,=B,,] !fermata![C,,C,]2 | %42
 [E,,E,]2 [D,,D,][E,,E,] || [F,,F,]2 [F,,F,]2 | !fermata![B,,,B,,]4 |] %45

